icon_installer/data/icons/scalable/actions/show-timer-sand-symbolic.svg

<?xml version="1.0" encoding="UTF-8"?>
<svg height="16px" viewBox="0 0 16 16" width="16px" xmlns="http://www.w3.org/2000/svg">
    <g fill="#222222">
        <path d="m 0 1 v 2 h 2 v 2.46875 l 3 2.5 v 0.0625 l -3 2.5 v 2.46875 h -2 v 2 h 15 v -2 h -2 v -2.46875 l -3 -2.5 v -0.0625 l 3 -2.5 v -2.46875 h 2 v -2 z m 4 2 h 7 v 1.53125 l -3 2.5 v 1.9375 l 3 2.5 v 1.53125 h -1 l -2.5 -2.1875 l -2.5 2.1875 h -1 v -1.53125 l 3 -2.5 v -1.9375 l -3 -2.5 z m 0 0"/>
        <path d="m 6 5 h 3 l -1.5 1.3125 z m 0 0"/>
    </g>
</svg>

<svg xmlns="http://www.w3.org/2000/svg" width="16" height="16"><g fill="#222"><path d="M0 1v2h2v2.469l3 2.5v.062l-3 2.5V13H0v2h15v-2h-2v-2.469l-3-2.5V7.97l3-2.5V3h2V1zm4 2h7v1.531l-3 2.5V8.97l3 2.5V13h-1l-2.5-2.188L5 13H4v-1.531l3-2.5V7.03l-3-2.5zm0 0"/><path d="M6 5h3L7.5 6.313zm0 0"/></g></svg>
